X:1
T:Title
L:1/8
Q:1/4=100
M:4/4
K:G
V:1 treble nm="Church Organ, Staff"
V:1
 B2 B2 BcdB | G2 G2 GA B2 | c2 BA Bc d2 | d2 cB A4 | A2 A2 B2 _B=B | ^c2 Bc d2 cd | e2 A2 f2 d2 | %7
w: By~Ebenezer~Prout,~B.~A.~ * * * * *|||||||
 e2 d^c d4 | d2 d2 d2 cB | e2 d2 c2 A2 | d2 c2 B2 AB | c2 F2 G4 |] %12
w: |||||

